X:1
T:Title
L:1/8
M:4/4
K:F
V:1 treble nm="Grand Piano"
V:1
 z4 z[Q:1/4=100] DDD | A2 A2 GBAG | FE D2- DFED | ^C2 A,2 FEFG | A4- ADDD | A2 A2 GBAG | %6
 FE D2- DFED | ^C2 A,2 FEDC |[M:5/8] D-D- D3 |[M:3/8] AAA |[M:4/4] d2 d2 cBAc | B4- BGGG | %12
 c2 c2 BAGB | A4- AABA | GF E2- EGAG | FE D2- DFED | ^C2 A,2 FEDC | D6 z2 |] %18

